static/map.svg

<svg width="20" height="20" viewBox="0 0 20 20" fill="none" xmlns="http://www.w3.org/2000/svg">
<path d="M14.3757 18.8857L19.9144 2.14332C20.3354 0.87241 19.1319 -0.337033 17.8673 0.0860011L1.10814 5.68577C-0.379525 6.18293 -0.366033 8.30352 1.12883 8.78079L8.09315 11.0044C8.54917 11.15 8.90804 11.5079 9.05645 11.9653L11.3005 18.8776C11.7853 20.3699 13.8828 20.3753 14.3757 18.8866V18.8857ZM12.1487 7.85698C11.8366 7.54332 11.8366 7.03532 12.1487 6.72166L13.7902 5.07201C14.1023 4.75835 14.6078 4.75835 14.9199 5.07201C15.232 5.38567 15.232 5.89367 14.9199 6.20733L13.2784 7.85698C12.9663 8.17064 12.4608 8.17064 12.1487 7.85698Z" fill="#BBC7D3"/>

</svg>

<svg xmlns="http://www.w3.org/2000/svg" width="20" height="20" fill="none"><path fill="#BBC7D3" d="m14.376 18.886 5.538-16.743c.421-1.27-.782-2.48-2.047-2.057l-16.759 5.6c-1.488.497-1.474 2.618.02 3.095l6.965 2.223c.456.146.815.504.963.961l2.245 6.913c.484 1.492 2.582 1.497 3.075.009v-.001ZM12.149 7.857a.805.805 0 0 1 0-1.135l1.641-1.65a.796.796 0 0 1 1.13 0 .805.805 0 0 1 0 1.135l-1.642 1.65a.796.796 0 0 1-1.13 0Z"/></svg>
